!! 00000] TT[00
!! NN
!!!OTL: Jiemei xiu xiangdai
!!!ARE: Asia, China,ˇHubei, Changyang
!! Ethnic Group: Han
!! I, 455
!!!SCT: C0115
!!!YEM: Copyright 1995, estate of Helmut Schaffrath.
**kern
*ICvox
*Ivox
*M2/4
*k[b-]
*F:
{8f
16d
16c
8f
8g
=1
16.a
32cc
16a
16g
4a
=2
16g
16a
8cc
16a
16cc
8a
=3
16g
32g
32a
16g
16f
4g}
=4
{16.g
32a
16g
16f
16d
16f
16g
16a
=5
16f
32f
32g
16f
16d
4f}
=6
{16g
16a
16g
16f
8d
16d
16e
=7
16d
32d
32e
16d
16c
4d}
=8
{16d
16f
16g
16a
16f
32g
32a
16f
16d
=9
8.c
16d
4c}
==
!!!AGN: Xiaodiao, MengjiangnÅ diao, Laba diao. FunÅ shenghuo
!! verschiedene Varianten zu dieser Weise existieren im Sueden.
!!    +++Band 20 absuchen +++
!!!ONB: ESAC (Essen Associative Code) Database: CHINA
!!!AMT: simple duple
!!!AIN: vox
!!!EED: Helmut Schaffrath
!!!EEV: 1.0
*-
